X:247
T:score49
L:1/8
Q:1/4=96
M:1/4
I:linebreak $
K:F
 (Ac |[M:3/4] d2 df e>c | fg f2 e2 | de d2 c2 |$ A4) (Ac | d2 df e>c | fg a2 a2 | ag f2 g2 | %8
[M:2/4] f4) |] %9
